!!!COM: Mendelssohn, Felix
!!!CDT: 1809/02/03-1847/11/04
!!!OPR: Sechs vierstimmige Lieder
!!!OTL: Frühlingsfeier
!!!OPS: Op. 48
!!!ONM: Nr. 3
!!!OMD: Con moto espressivo
**kern	**text	**dynam	**kern	**text	**dynam	**kern	**text	**dynam	**kern	**text	**dynam
*part4	*part4	*part4	*part3	*part3	*part3	*part2	*part2	*part2	*part1	*part1	*part1
*staff4	*staff4	*	*staff3	*staff3	*	*staff2	*staff2	*	*staff1	*staff1	*
*I"Bass	*	*	*I"Tenor	*	*	*I"Alt	*	*	*I"Sopran	*	*
*clefF4	*	*	*clefGv2	*	*	*clefG2	*	*	*clefG2	*	*
*k[f#c#g#d#]	*	*	*k[f#c#g#d#]	*	*	*k[f#c#g#d#]	*	*	*k[f#c#g#d#]	*	*
*E:	*	*	*E:	*	*	*E:	*	*	*E:	*	*
*M3/4	*	*	*M3/4	*	*	*M3/4	*	*	*M3/4	*	*
*MM72	*	*	*MM72	*	*	*MM72	*	*	*MM72	*	*
=	=	=	=	=	=	=	=	=	=	=	=
8.A	Sü-	mf	8.e	Sü-	sf	8.c#	Sü-	sf	8.cc#	Sü-	sf
16G#	-sser,	.	16B	-sser,	.	16e	-sser,	.	16b	-sser,	.
=1	=1	=1	=1	=1	=1	=1	=1	=1	=1	=1	=1
4.G#	gold'-	.	4.B	gold'-	.	4.e	gold'-	.	4.b	gold'-	.
8G#	-ner	.	8B	-ner	.	8e	-ner	.	8e	-ner	.
8.F#	Früh-	.	8.B	Früh-	.	8.d#	Früh-	.	8.a	Früh-	.
16E	-lings-	.	16B	-lings-	.	16e	-lings-	.	16g#	-lings-	.
=2	=2	=2	=2	=2	=2	=2	=2	=2	=2	=2	=2
2.E	-tag!	<	(4B	-tag!	<	(4e	-tag!	<	2g#	-tag!	<
.	.	.	4e	.	.	4g#	.	.	.	.	.
.	.	[[	4d#)	.	[[	4f#)	.	[[	[4b	In-	[[
=3	=3	=3	=3	=3	=3	=3	=3	=3	=3	=3	=3
*B:	*	*	*B:	*	*	*B:	*	*	*B:	*	*
8F#	In-	f	8c#	In-	f	8e	In-	f	8b]	.	f
8F#	-ni-	.	8c#	-ni-	.	8e	-ni-	.	8b	-ni-	.
4.F#	-ges	.	8eL	-ges	.	8g#L	-ges	.	8a#XL	-ges	.
.	.	.	8d#J	.	.	8f#J	.	.	8bJ	.	.
.	.	.	8c#L	Ent-	.	8eL	Ent-	.	8cc#L	Ent-	.
8F#	Ent-	.	8A#XJ	.	.	8c#J	.	.	8eeJ	.	.
=4	=4	=4	=4	=4	=4	=4	=4	=4	=4	=4	=4
4A#X	-zü-	.	4c#	-zü-	.	4f#	-zü-	.	4ee	-zü-	.
4B	-cken!	.	4B	-cken!	.	4f#	-cken!	.	4dd#	-cken!	.
4r	.	.	4r	.	.	4r	.	.	4r	.	.
=5	=5	=5	=5	=5	=5	=5	=5	=5	=5	=5	=5
*E:	*	*	*E:	*	*	*E:	*	*	*E:	*	*
(4GG#	Wenn	p	2E	Wenn	p	(4B	Wenn	p	(4e	Wenn	p
4AA)	.	.	.	.	.	4c#)	.	.	4.f#)	.	.
4BB	mir	.	4D#	mir	.	4B	mir	.	.	.	.
.	.	.	.	.	.	.	.	.	8b	mir	.
=6	=6	=6	=6	=6	=6	=6	=6	=6	=6	=6	=6
2.C#	je	.	2.E	je	.	2e	je	.	(4a	je	.
.	.	<	.	.	<	.	.	.	2g#)	.	.
.	.	.	.	.	.	8.f#L	ein	<	.	.	.
.	.	[[	.	.	[[	16eJ	.	[[	.	.	.
=7	=7	=7	=7	=7	=7	=7	=7	=7	=7	=7	=7
*A:	*	*	*A:	*	*	*A:	*	*	*A:	*	*
4C#	ein	.	4A	ein	.	(4e	Lied	.	4a	ein	.
4Dn	Lied	<	4f#	Lied	<	4a)	.	<	4.b	Lied	<
4E	ge-	.	4e	ge-	.	4g#	ge-	.	.	.	.
.	.	.	.	.	.	.	.	.	8ee	ge-	.
=8	=8	=8	=8	=8	=8	=8	=8	=8	=8	=8	=8
4A	-lang,	f	4e	-lang,	f	4a	-lang,	f	4cc#	-lang,	f
*E:	*	*	*E:	*	*	*E:	*	*	*E:	*	*
4.A	sollt'	sf	4.d#X	sollt'	sf	4.f#	sollt'	sf	4.dd#X	sollt'	sf
8A	es	.	8d#	es	.	8f#	es	.	8cc#	es	.
=9	=9	=9	=9	=9	=9	=9	=9	=9	=9	=9	=9
2G#	heut',	.	4e	heut',	.	4b	heut',	.	4b	heut',	.
.	.	.	4.d#	sollt'	sf	4.e	sollt'	sf	4.b	sollt'	sf
4A	es	.	.	.	.	.	.	.	.	.	.
.	.	.	8c#	es	.	8e	es	.	8a	es	.
=10	=10	=10	=10	=10	=10	=10	=10	=10	=10	=10	=10
4E	heut'	.	4B	heut'	.	4e	heut'	.	(4g#	heut'	.
2AA	nicht	.	2c#	nicht	.	2e	nicht	.	8f#L)	.	.
.	.	.	.	.	.	.	.	.	8g#J	.	.
.	.	.	.	.	.	.	.	.	8aL	nicht	.
.	.	.	.	.	.	.	.	.	8cc#J	.	.
=11	=11	=11	=11	=11	=11	=11	=11	=11	=11	=11	=11
4r	.	.	4r	.	.	4r	.	.	(2f#	glü-	p
2BB	glü-	p	(4B	glü-	p	2d#	glü-	p	.	.	.
.	.	.	4A)	.	.	.	.	.	4f##X)	.	.
=12	=12	=12	=12	=12	=12	=12	=12	=12	=12	=12	=12
4E	-cken?	.	4G#	-cken?	.	4e	-cken?	.	4g#	-cken?	.
4.A	sollt'	sf	4.B	sollt'	sf	4.f#	sollt'	sf	4.dd#	sollt'	sf
8A	es	.	8d#	es	.	8f#	es	.	8cc#	es	.
=13	=13	=13	=13	=13	=13	=13	=13	=13	=13	=13	=13
4G#	heut',	.	4e	heut',	.	4b	heut',	.	4b	heut',	.
4.F#	sollt'	>	4.c#	sollt'	>	4.e	sollt'	>	4.b	sollt'	>
8BB	es	]]	8d#	es	]]	8f#	es	]]	8a	es	]]
=14	=14	=14	=14	=14	=14	=14	=14	=14	=14	=14	=14
2.E	heut'	.	(4e	heut'	.	(4e	heut'	.	[2.g#	heut'	.
.	.	.	[2B)	.	.	4d#	.	.	.	.	.
.	.	.	.	.	.	4dn	.	.	.	.	.
=15	=15	=15	=15	=15	=15	=15	=15	=15	=15	=15	=15
2.AA	nicht	p	4B]	.	.	2c#)	.	p	4g#]	.	.
.	.	.	2A	nicht	p	.	.	.	8f#L	.	p
.	.	.	.	.	.	.	.	.	8g#J	.	.
.	.	.	.	.	.	4e	nicht	.	8aL	nicht	.
.	.	.	.	.	.	.	.	.	8cc#J	.	.
=16	=16	=16	=16	=16	=16	=16	=16	=16	=16	=16	=16
4BB	glü-	pp	4A	glü-	pp	4d#	glü-	pp	4f#	glü-	pp
4E	-cken?	.	4G#	-cken?	.	4e	-cken?	.	4e	-cken?	.
=||;	=||;	=||;	=||;	=||;	=||;	=||;	=||;	=||;	=||;	=||;	=||;
8.A	Doch	f	8.e	Doch	f	8.c#	Doch	f	8.cc#	Doch	f
16G#	wa-	.	16B	wa-	.	16e	wa-	.	16b	wa-	.
=17	=17	=17	=17	=17	=17	=17	=17	=17	=17	=17	=17
4.G#	-rum	.	4.B	-rum	.	4.e	-rum	.	4.b	-rum	.
8G#	in	.	8B	in	.	8e	in	.	8e	in	.
8.F#	die-	.	8.B	die-	.	8.d#	die-	.	8.a	die-	.
16E	-ser	.	16B	-ser	.	16e	-ser	.	16g#	-ser	.
=18	=18	=18	=18	=18	=18	=18	=18	=18	=18	=18	=18
4E	Zeit	<	4B	Zeit	<	4e	Zeit	<	2g#	Zeit	<
4E	an	.	4e	an	.	4g#	an	.	.	.	.
4E	die	[[	4d#	die	[[	4f#	die	[[	[4b	an	[[
=19	=19	=19	=19	=19	=19	=19	=19	=19	=19	=19	=19
*B:	*	*	*B:	*	*	*B:	*	*	*B:	*	*
2F#	Ar-	f	(4c#	Ar-	f	(4e	Ar-	f	8b]	.	f
.	.	.	.	.	.	.	.	.	8b	die	.
.	.	.	8eL	.	.	8g#L	.	.	8a#XL	Ar-	.
.	.	.	8d#J	.	.	8f#J)	.	.	8bJ	.	.
8F#L	-beit	.	8c#)	.	.	8eL	-beit	.	8cc#L	-beit	.
8A#XJ	.	.	8c#	-beit	.	8c#J	.	.	8eeJ	.	.
=20	=20	=20	=20	=20	=20	=20	=20	=20	=20	=20	=20
4A#X	tre-	.	4c#	tre-	.	4f#	tre-	.	4ee	tre-	.
4B	-ten?	.	4B	-ten?	.	4f#	-ten?	.	4dd#	-ten?	.
4r	.	.	4r	.	.	4r	.	.	4r	.	.
=21	=21	=21	=21	=21	=21	=21	=21	=21	=21	=21	=21
*E:	*	*	*E:	*	*	*E:	*	*	*E:	*	*
(4GG#	Früh-	p	2E	Früh-	p	(4B	Früh-	p	(4e	Früh-	p
4AA)	.	.	.	.	.	4c#)	.	.	4.f#)	.	.
4BB	-ling	.	4D#	-ling	.	4B	-ling	.	.	.	.
.	.	.	.	.	.	.	.	.	8b	-ling	.
=22	=22	=22	=22	=22	=22	=22	=22	=22	=22	=22	=22
2.C#	ist	.	2.E	ist	.	2e	ist,	.	(4a	ist	.
.	.	.	.	.	.	.	.	.	2g#)	.	.
.	.	.	.	.	.	8.f#	Früh-	.	.	.	.
.	.	.	.	.	.	16e	-ling	.	.	.	.
=23	=23	=23	=23	=23	=23	=23	=23	=23	=23	=23	=23
*A:	*	*	*A:	*	*	*A:	*	*	*A:	*	*
4C#	ein	.	4A	ein	.	8.e	ist	.	4a	ein	.
.	.	.	.	.	.	16a	ein	.	.	.	.
4Dn	ho-	<	4f#	ho-	<	4a	ho-	<	4.b	ho-	<
4E	-hes	.	4e	-hes	.	4g#	-hes	.	.	.	.
.	.	.	.	.	.	.	.	.	8ee	-hes	.
=24	=24	=24	=24	=24	=24	=24	=24	=24	=24	=24	=24
4A	Fest:	f	4e	Fest:	f	4a	Fest:	f	4cc#	Fest:	f
*E:	*	*	*E:	*	*	*E:	*	*	*E:	*	*
4.A	lasst	sf	4.d#X	lasst	sf	4.f#	lasst	sf	4.dd#X	lasst	sf
8A	mich	.	8d#	mich	.	8f#	mich	.	8cc#	mich	.
=25	=25	=25	=25	=25	=25	=25	=25	=25	=25	=25	=25
2G#	ruh'n,	.	4e	ruh'n,	.	4b	ruh'n,	.	4b	ruh'n,	.
.	.	.	4.d#	lasst	sf	[2e	.	.	4.b	lasst	sf
4A	mich	.	.	.	.	.	.	.	.	.	.
.	.	.	8c#	mich	.	.	.	.	8a	mich	.
=26	=26	=26	=26	=26	=26	=26	=26	=26	=26	=26	=26
4E	ruh'n	.	4B	ruh'n	sf	4e]	.	.	(4g#	ruh'n	.
2AA	und	.	2c#	und	.	2e	und	.	8f#L	.	.
.	.	.	.	.	.	.	.	.	8g#J)	.	.
.	.	.	.	.	.	.	.	.	8aL	und	.
.	.	.	.	.	.	.	.	.	8cc#J	.	.
=27	=27	=27	=27	=27	=27	=27	=27	=27	=27	=27	=27
4r	.	.	4r	.	.	4r	.	.	(2f#	be-	p
2BB	be-	p	(4B	be-	p	2d#	be-	p	.	.	.
.	.	.	4A)	.	.	.	.	.	4f##X)	.	.
=28	=28	=28	=28	=28	=28	=28	=28	=28	=28	=28	=28
4E	-ten,	.	4G#	-ten,	.	4e	-ten,	.	4g#	-ten,	.
4.A	lasst	f	4.B	lasst	f	4.d#	lasst	f	4.ff#	lasst	f
8A	mich	.	8B	mich	.	8f#	mich	.	8dd#	mich	.
=29	=29	=29	=29	=29	=29	=29	=29	=29	=29	=29	=29
4G#	ruh'n,	.	4B	ruh'n,	.	4b	ruh'n,	.	4ee	ruh'n,	.
4E	lasst	>	4e	lasst	>	4g#	lasst	>	4.b	lasst	>
4F#	mich	.	8d#L	mich	.	4f#	mich	.	.	.	.
.	.	.	8c#J	.	.	.	.	.	8a	mich	.
=30	=30	=30	=30	=30	=30	=30	=30	=30	=30	=30	=30
*c#:	*	*	*c#:	*	*	*c#:	*	*	*c#:	*	*
2.G#	ruh'n	.	2.B#X	ruh'n	.	(4f#	ruh'n	.	[2.g#	ruh'n	.
.	.	.	.	.	.	4e	.	.	.	.	.
.	.	.	.	.	.	4d#	.	.	.	.	.
=31	=31	=31	=31	=31	=31	=31	=31	=31	=31	=31	=31
2A	.	p	2c#	.	p	2c#)	.	p	(4g#]	.	p
.	.	.	.	.	.	.	.	.	8f#L	.	.
.	.	.	.	.	.	.	.	.	8g#J)	.	.
*E:	*	*	*E:	*	*	*E:	*	*	*E:	*	*
4AA	und	.	4c#	und	.	4e	und	.	8aL	und	.
.	.	.	.	.	.	.	.	.	8cc#J	.	.
=32	=32	=32	=32	=32	=32	=32	=32	=32	=32	=32	=32
2.BB	be-	.	(4c#^	be-	.	(4e	be-	.	2.f#	be-	.
.	.	.	4B	.	.	2d#)	.	.	.	.	.
.	.	.	4A)	.	.	.	.	.	.	.	.
=33	=33	=33	=33	=33	=33	=33	=33	=33	=33	=33	=33
4E	-ten,	.	4G#	-ten,	.	4e	-ten,	.	4e	-ten,	.
4r	.	.	4r	.	.	4.e	lasst	p	4r	.	.
4r	.	.	4r	.	.	.	.	.	4r	.	.
.	.	.	.	.	.	8e	mich	.	.	.	.
=34	=34	=34	=34	=34	=34	=34	=34	=34	=34	=34	=34
2.r	.	.	4r	.	.	[2.e	ruh'n,	.	2.r	.	.
.	.	.	4.dn	lasst	p	.	.	.	.	.	.
.	.	.	8d	mich	.	.	.	.	.	.	.
=35	=35	=35	=35	=35	=35	=35	=35	=35	=35	=35	=35
2.r	.	.	(2.dn	ruh'n	.	2e_	.	.	4r	.	.
.	.	.	.	.	.	.	.	.	4.cc#^	lasst	p
.	.	.	.	.	.	8e]	.	.	.	.	.
.	.	.	.	.	.	8e	mich	.	8b	mich	.
=36	=36	=36	=36	=36	=36	=36	=36	=36	=36	=36	=36
4r	.	.	2c#)	.	.	2e	ruh'n	.	(4a	ruh'n	.
4.AA	ruh'n	.	.	.	.	.	.	.	4g#)	.	.
.	.	.	4A	und	.	4c#	und	.	4f#	und	.
8AA	und	.	.	.	.	.	.	.	.	.	.
=37	=37	=37	=37	=37	=37	=37	=37	=37	=37	=37	=37
2.AA	be-	.	2.A	be-	.	2.c#	be-	.	2.e	be-	.
=38	=38	=38	=38	=38	=38	=38	=38	=38	=38	=38	=38
!LO:TX:a:B:t=<  >	!	!	!LO:TX:a:B:t=<  >	!	!	!LO:TX:a:B:t=<  >	!	!	!LO:TX:a:B:t=<  >	!	!
2EE; 2E	-ten!	.	2G#;	-ten!	.	2B;	-ten!	.	2e;	-ten!	.
4ryy	.	.	4ryy	.	.	4ryy	.	.	4ryy	.	.
==	==	==	==	==	==	==	==	==	==	==	==
*-	*-	*-	*-	*-	*-	*-	*-	*-	*-	*-	*-
!!!system-decoration: ([s1,s2,s3,s4])
!!!RDF**kern: i = editorial accidental
!!!AGN: Choral
!!!YOR: https://mdz-nbn-resolving.de/details:bsb11328486
!!!YOO: München, Bayerische Staatsbibliothek
!!!URL-scan: https://www.digitale-sammlungen.de/de/view/bsb11328486?page=6
!!!EED: Wolfgang Drescher
!!!END: 2024/11/12
!!!ENC: Wolfgang Drescher
!!!EEV: 2024/11/13
!!!title: @{OPS} @{ONM}. @{OTL}